build/img/icons/vk.svg

<svg width="19" height="12" viewBox="0 0 19 12" fill="none" xmlns="http://www.w3.org/2000/svg">
<path fill-rule="evenodd" clip-rule="evenodd" d="M11.2375 0.969664V4.98503C11.2331 5.05136 11.2447 5.11777 11.2715 5.17879C11.2982 5.23981 11.3393 5.29371 11.3913 5.33598C11.4433 5.37826 11.5048 5.40769 11.5706 5.42192C11.6364 5.43614 11.7048 5.43474 11.77 5.41778C12.145 5.39189 12.9924 1.96577 13.3687 1.21866C13.5684 0.797402 13.8892 0.443307 14.2912 0.200332C14.4179 0.0871798 14.5795 0.0194177 14.75 0.00799909H18.3475C18.4446 0.0241225 18.5359 0.0643744 18.6129 0.124934C18.6899 0.185493 18.7499 0.264353 18.7874 0.354138C18.8249 0.443924 18.8387 0.541661 18.8273 0.638123C18.8159 0.734585 18.7799 0.826643 18.7225 0.905553C18.4412 1.52198 16.0287 5.35612 15.9037 5.51146C15.7532 5.71191 15.6519 5.94405 15.6075 6.18959C15.6566 6.47978 15.7924 6.74885 15.9975 6.96254C16.2475 7.24116 18.2675 9.42829 18.4562 9.61938C18.6342 9.82084 18.7531 10.0663 18.8 10.3295C18.7549 10.5538 18.6286 10.7543 18.4445 10.8934C18.2605 11.0325 18.0313 11.1007 17.8 11.0852C17.0175 11.0852 15.0925 11.0852 14.8725 11.0852C14.4327 10.9334 14.0282 10.6966 13.6825 10.3886C13.4012 10.1421 12.3587 8.96841 12.2025 8.81431C12.1496 8.75158 12.082 8.70249 12.0056 8.67134C11.9291 8.64019 11.8461 8.62789 11.7637 8.63552C11.5762 8.63552 11.22 8.65404 11.2362 9.35677C11.2809 9.84361 11.1773 10.3325 10.9387 10.761C10.8167 10.8764 10.672 10.966 10.5136 11.0243C10.3552 11.0826 10.1864 11.1084 10.0175 11.1C8.73888 11.1765 7.46733 10.8636 6.37498 10.2038C4.40747 8.99925 2.16746 5.78023 1.12496 3.72629C0.503116 2.70655 0.118896 1.56329 0 0.379121C0.0625001 0.162138 0.0624403 0.0092783 0.28244 0.0092783C0.502441 0.0092783 3.26874 0.0092783 3.53249 0.0092783C3.71536 0.098169 3.86789 0.237862 3.97126 0.411176C4.06501 0.534462 4.77996 2.64508 4.99871 3.01617C5.21746 3.38726 6.29619 5.42026 6.88119 5.42026C7.07543 5.38265 7.24673 5.27085 7.35772 5.10919C7.46871 4.94753 7.51039 4.7491 7.47369 4.55725C7.47369 4.0641 7.47369 2.11743 7.47369 1.86963C7.2359 1.32297 6.80006 0.883395 6.25123 0.636769C6.3879 0.457711 6.56224 0.309891 6.76224 0.203492C6.96225 0.0970942 7.1832 0.0346339 7.40998 0.0203397C8.15998 -0.0104817 10.0412 -0.010498 10.4475 0.049912C10.6655 0.0918572 10.8626 0.205847 11.0062 0.373025C11.1498 0.540204 11.2314 0.75064 11.2375 0.969664Z" fill="#6695BD"/>
</svg>

<svg width="19" height="12" viewBox="0 0 19 12" fill="none" xmlns="http://www.w3.org/2000/svg">
    <path fill-rule="evenodd" clip-rule="evenodd" d="M11.238.97v4.015a.414.414 0 0 0 .153.351.427.427 0 0 0 .379.082c.375-.026 1.222-3.452 1.599-4.2.2-.42.52-.775.922-1.018a.766.766 0 0 1 .459-.192h3.598a.584.584 0 0 1 .44.346.565.565 0 0 1-.066.552c-.28.616-2.693 4.45-2.818 4.605-.15.2-.252.433-.296.679.049.29.184.559.39.773.25.278 2.27 2.465 2.458 2.656.178.202.297.447.344.71a.94.94 0 0 1-.355.564.963.963 0 0 1-.645.192h-2.928a3.51 3.51 0 0 1-1.19-.696c-.28-.247-1.323-1.42-1.48-1.575a.509.509 0 0 0-.438-.178c-.188 0-.544.018-.528.72.045.488-.059.976-.297 1.405a1.244 1.244 0 0 1-.921.339 6.318 6.318 0 0 1-3.643-.896C4.407 8.999 2.167 5.78 1.125 3.726A7.954 7.954 0 0 1 0 .38C.063.162.062.01.282.01h3.25c.183.09.336.229.44.402.093.123.808 2.234 1.027 2.605.218.371 1.297 2.404 1.882 2.404a.75.75 0 0 0 .477-.31.732.732 0 0 0 .116-.553V1.87A2.406 2.406 0 0 0 6.25.637 1.57 1.57 0 0 1 7.41.02c.75-.03 2.631-.03 3.037.03a.98.98 0 0 1 .56.323.956.956 0 0 1 .23.597z" fill="#6695BD"/>
</svg>
